svg/numeric_9_box_outline.svg

<svg xmlns="http://www.w3.org/2000/svg" viewBox="0 0 24 24"><path d="M13 11h-2V9h2m0-2h-2a2 2 0 0 0-2 2v2a2 2 0 0 0 2 2h2v2H9v2h4a2 2 0 0 0 2-2V9a2 2 0 0 0-2-2m6 12H5V5h14m0-2H5a2 2 0 0 0-2 2v14a2 2 0 0 0 2 2h14a2 2 0 0 0 2-2V5a2 2 0 0 0-2-2"/></svg>

<?xml version="1.0" encoding="UTF-8"?><!DOCTYPE svg PUBLIC "-//W3C//DTD SVG 1.1//EN" "http://www.w3.org/Graphics/SVG/1.1/DTD/svg11.dtd"><svg xmlns="http://www.w3.org/2000/svg" xmlns:xlink="http://www.w3.org/1999/xlink" version="1.1" id="mdi-numeric-9-box-outline" width="24" height="24" viewBox="0 0 24 24"><path d="M13,11H11V9H13M13,7H11A2,2 0 0,0 9,9V11C9,12.11 9.9,13 11,13H13V15H9V17H13A2,2 0 0,0 15,15V9C15,7.89 14.1,7 13,7M19,19H5V5H19M19,3H5A2,2 0 0,0 3,5V19A2,2 0 0,0 5,21H19A2,2 0 0,0 21,19V5A2,2 0 0,0 19,3Z" /></svg>
